X:99
T:Chevy Chace
M:6/8
L:1/8
K:G
%%score 1 2
V:1 clef-treble
V:2 clef-bass octave=-1
V:1
d|c2BA2D|F2GA2B|c2d[GBe]2[=Fd]|
w:God pros-per long our no-ble king, Our lives and safe-ties
V:2
[K:bass]B&G|e2dc2B&G6|A2Bc2d&G6-|e2Bx3&G3G3|
V:1
[Ed]3-[Ed]2[Ed]|B2AB2c&^F3G3|(de)dA2[DFB]&F3-F2x|[CGB]2[Gd][DGB]2[CFA]|[B,G]3-[B,G]2||
w:all;* A woe-ful hunt-ing once* there did In Che-vy-Chace be-fall.*
V:2
c2GC2[CG]|[Dc]3[GB]2[EG]|[DA]3-[DA]2D|E2B,D3|G3-G2||

%%%%vocalfont Baskerville10Pro 14
%%%%pagewidth 6.6in
%%%%staffscale 1.0
